static/assets/images/icons/star.svg

<svg width="256" height="256" viewBox="0 0 256 256" fill="none" xmlns="http://www.w3.org/2000/svg">
<path d="M138.258 31.5257C135.327 29.239 131.717 27.9979 128 28C124.283 27.9979 120.673 29.239 117.742 31.5257C114.812 33.8124 112.73 37.0136 111.828 40.6199L106.097 63.6378C103.534 73.893 98.2322 83.2586 90.7589 90.7333C83.2856 98.208 73.9217 103.511 63.6684 106.074L40.6548 111.807C37.0422 112.702 33.8333 114.781 31.5397 117.712C29.2462 120.644 28 124.259 28 127.981C28 131.704 29.2462 135.319 31.5397 138.251C33.8333 141.182 37.0422 143.261 40.6548 144.156L63.6684 149.888C73.9217 152.452 83.2856 157.755 90.7589 165.229C98.2322 172.704 103.534 182.07 106.097 192.325L111.828 215.343C112.723 218.956 114.802 222.166 117.733 224.46C120.664 226.754 124.278 228 128 228C131.722 228 135.336 226.754 138.267 224.46C141.198 222.166 143.277 218.956 144.172 215.343L149.903 192.325C152.477 182.075 157.783 172.715 165.254 165.242C172.726 157.77 182.084 152.463 192.332 149.888L215.345 144.156C218.958 143.261 222.167 141.182 224.46 138.251C226.754 135.319 228 131.704 228 127.981C228 124.259 226.754 120.644 224.46 117.712C222.167 114.781 218.958 112.702 215.345 111.807L192.332 106.074C182.084 103.5 172.726 98.1932 165.254 90.7203C157.783 83.2473 152.477 73.8877 149.903 63.6378L144.172 40.6199C143.27 37.0136 141.188 33.8124 138.258 31.5257Z" fill="black"/>
</svg>

<svg xmlns="http://www.w3.org/2000/svg" fill="none" viewBox="0 0 256 256"><path fill="#000" d="M138.258 31.526A16.66 16.66 0 0 0 128 28a16.66 16.66 0 0 0-16.172 12.62l-5.731 23.018a58.32 58.32 0 0 1-42.429 42.436l-23.013 5.733a16.662 16.662 0 0 0 0 32.349l23.013 5.732a58.32 58.32 0 0 1 42.429 42.437l5.731 23.018a16.657 16.657 0 0 0 26.439 9.117 16.67 16.67 0 0 0 5.905-9.117l5.731-23.018a58.43 58.43 0 0 1 42.429-42.437l23.013-5.732A16.66 16.66 0 0 0 228 127.981a16.664 16.664 0 0 0-12.655-16.174l-23.013-5.733a58.4 58.4 0 0 1-27.078-15.354 58.44 58.44 0 0 1-15.351-27.082l-5.731-23.018a16.67 16.67 0 0 0-5.914-9.094"/></svg>
